packages/console/src/assets/images/failed.svg

<svg
    width="24"
    height="24"
    viewBox="0 0 24 24"
    fill="none"
    xmlns="http://www.w3.org/2000/svg"
    
  >
    <path
      d="M14.2664 11.9937L19.5317 6.7284C20.1561 6.10454 20.1561 5.09229 19.5317 4.4679C18.9073 3.84403 17.8961 3.84403 17.2717 4.4679L12.0065 9.73317L6.74119 4.46843C6.11732 3.84403 5.10508 3.84403 4.48068 4.46843C3.85682 5.09229 3.85682 6.10454 4.48068 6.72893L9.74596 11.9937L4.4679 17.2717C3.84403 17.8956 3.84403 18.9078 4.4679 19.5317C4.77956 19.8439 5.18925 20 5.59788 20C6.00651 20 6.4162 19.8439 6.7284 19.5317L12.0059 14.2542L17.2707 19.5189C17.5829 19.8311 17.992 19.9872 18.4007 19.9872C18.8093 19.9872 19.2184 19.8311 19.5306 19.5189C20.155 18.8951 20.155 17.8828 19.5306 17.2589L14.2664 11.9937Z"
      fill="currentColor"
    />
  </svg>

<svg width="24" height="24" viewBox="0 0 24 24" fill="none" xmlns="http://www.w3.org/2000/svg"><path d="m14.266 11.994 5.266-5.266a1.598 1.598 0 1 0-2.26-2.26l-5.265 5.265L6.74 4.468a1.598 1.598 0 1 0-2.26 2.26l5.265 5.266-5.278 5.278a1.598 1.598 0 0 0 2.26 2.26l5.278-5.278 5.265 5.265a1.593 1.593 0 0 0 2.26 0 1.597 1.597 0 0 0 0-2.26l-5.265-5.265Z" fill="currentColor"/></svg>
